!!!COM:	Pierre de la Rue
**kern	**kern
*part2	*part1
*staff2	*staff1
*clefF4	*clefGv2
*k[]	*k[]
*M2/1	*M2/1
=1-	=1-
0r	1G
.	2G
.	[2A
=2	=2
1r	2A]
.	4G
.	4F
1C	1E
=3	=3
2C	2E
1D	1F
4C	4E
4BB	4D
=4	=4
2.AA	2F
.	1E
4BB	.
2C	.
2D	[2A
=5	=5
1BB	2A]
.	2G
2.AA	1A
4BB	.
=6	=6
2C	1r
2D	.
2AA	[1A
[2D	.
=7	=7
2D]	1A]
4C	.
4BB	.
2C	1A
2D	.
=8	=8
2GG	1.B
1G	.
4F	4A
4E	4G
=9	=9
2F	2A
2G	1G
1C	.
.	[2c
=10	=10
2r	2c]
1G	4B
.	4A
.	2B
4F	[2A
4E	.
=11	=11
2F	2A]
1E	4G
.	4F
.	2G
4D	[2F
4C	.
=12	=12
2D	2F]
1C	4E
.	4D
.	2E
4BB	[2D
4AA	.
=13	=13
2BB	2D]
4GG	1G
4AA	.
4BB	.
4C	.
2AA	2F
=14	=14
2GG	4G
.	4A
2G	4B
.	4c
2F	2A
2G	[2G
=15	=15
4E	2G]
4F	.
4G	4B
4A	4c
2G	4d
.	4e
4F	[2d
4E	.
=16	=16
4F	2d]
4E	.
4D	1c
4C	.
1D	.
.	2B
=17	=17
1C	0c
2r	.
[2F	.
=18	=18
2F]	2r
1E	1c
[2D	[2B
=19	=19
2D]	2B]
2C	1A
2D	.
2E	2G
=20	=20
2F	2A
2G	2B
2E	2c
2F	[2d
=21	=21
2.G	4d]
.	4c
.	4B
4F	4A
4E	1G
4D	.
2C	.
=22	=22
2E	2r
1D	2B
.	2A
2F	[2d
=23	=23
1E	2d]
.	2c
2r	2d
2D	[2A
=24	=24
1F	2A]
.	2.c
1E	.
.	4B
.	2G
=25	=25
1D	2r
.	2d
1F	2A
.	[2c
=26	=26
1E	4c]
.	4B
.	4A
.	4G
2r	2.F
2D	.
.	4D
=27	=27
2C	2E
2BB	2D
1D	2r
.	[2F
=28	=28
2.D	4F]
.	4G
.	4A
4C	4B
2AA	2.c
[2C	.
.	4B
=29	=29
4C]	2G
4BB	.
2GG	2.d
2.D	.
.	4c
.	4B
4C	4A
=30	=30
4D	4B
4C	4A
2.E	2.c
4D	4B
4C	4A
4BB	4G
=31	=31
4C	2A
4BB	.
4AA	1G
4GG	.
1AA	.
.	2F
=32	=32
0GG	0G
==	==
*-	*-
